svg/icon/vrc.svg

<svg xmlns="http://www.w3.org/2000/svg" xmlns:xlink="http://www.w3.org/1999/xlink" width="32" height="32" viewBox="0 0 32 32"><defs><linearGradient id="vrc-c" x1="50%" x2="50%" y1="0%" y2="100%"><stop offset="0%" stop-color="#FFF" stop-opacity=".5"/><stop offset="100%" stop-opacity=".5"/></linearGradient><circle id="vrc-b" cx="16" cy="15" r="15"/><filter id="vrc-a" width="111.7%" height="111.7%" x="-5.8%" y="-4.2%" filterUnits="objectBoundingBox"><feOffset dy=".5" in="SourceAlpha" result="shadowOffsetOuter1"/><feGaussianBlur in="shadowOffsetOuter1" result="shadowBlurOuter1" stdDeviation=".5"/><feComposite in="shadowBlurOuter1" in2="SourceAlpha" operator="out" result="shadowBlurOuter1"/><feColorMatrix in="shadowBlurOuter1" values="0 0 0 0 0 0 0 0 0 0 0 0 0 0 0 0 0 0 0.199473505 0"/></filter><path id="vrc-e" d="M20.264794,7 L25,7 L15.9998414,25 L7,7 L11.7037236,7 L16.0314031,16.112616 L20.264794,7 Z M15.9998414,11.9589327 C15.2119885,11.9589327 14.573221,11.3027794 14.573221,10.4937028 C14.573221,9.68462624 15.2119885,9.02847294 15.9998414,9.02847294 C16.787615,9.02847294 17.4266997,9.68462624 17.4266997,10.4937028 C17.4266997,11.3027794 16.787615,11.9589327 15.9998414,11.9589327 Z M22.4647552,15.9999186 C23.252846,15.9999186 23.8915342,16.6559904 23.8914549,17.4648228 C23.8914549,18.2740622 23.252846,18.9301341 22.4647552,18.9301341 C21.6770609,18.9301341 21.0378176,18.2740622 21.0378176,17.4648228 C21.0378176,16.6559904 21.6769816,15.9999186 22.4647552,15.9999186 Z"/><filter id="vrc-d" width="119.4%" height="119.4%" x="-9.7%" y="-6.9%" filterUnits="objectBoundingBox"><feOffset dy=".5" in="SourceAlpha" result="shadowOffsetOuter1"/><feGaussianBlur in="shadowOffsetOuter1" result="shadowBlurOuter1" stdDeviation=".5"/><feColorMatrix in="shadowBlurOuter1" values="0 0 0 0 0 0 0 0 0 0 0 0 0 0 0 0 0 0 0.204257246 0"/></filter></defs><g fill="none" fill-rule="evenodd"><use fill="#000" filter="url(#vrc-a)" xlink:href="#vrc-b"/><use fill="#418BCA" xlink:href="#vrc-b"/><use fill="url(#vrc-c)" style="mix-blend-mode:soft-light" xlink:href="#vrc-b"/><circle cx="16" cy="15" r="14.5" stroke="#000" stroke-opacity=".097"/><g fill-rule="nonzero"><use fill="#000" filter="url(#vrc-d)" xlink:href="#vrc-e"/><use fill="#FFF" fill-rule="evenodd" xlink:href="#vrc-e"/></g></g></svg>

<svg xmlns="http://www.w3.org/2000/svg" xmlns:xlink="http://www.w3.org/1999/xlink" width="32" height="32" viewBox="0 0 32 32"><defs><linearGradient id="c" x1="50%" x2="50%" y1="0%" y2="100%"><stop offset="0%" stop-color="#FFF" stop-opacity=".5"/><stop offset="100%" stop-opacity=".5"/></linearGradient><circle id="b" cx="16" cy="15" r="15"/><filter id="a" width="111.7%" height="111.7%" x="-5.8%" y="-4.2%" filterUnits="objectBoundingBox"><feOffset dy=".5" in="SourceAlpha" result="shadowOffsetOuter1"/><feGaussianBlur in="shadowOffsetOuter1" result="shadowBlurOuter1" stdDeviation=".5"/><feComposite in="shadowBlurOuter1" in2="SourceAlpha" operator="out" result="shadowBlurOuter1"/><feColorMatrix in="shadowBlurOuter1" values="0 0 0 0 0 0 0 0 0 0 0 0 0 0 0 0 0 0 0.199473505 0"/></filter><path id="e" d="M20.265 7H25l-9 18L7 7h4.704l4.327 9.113L20.265 7zM16 11.959c-.788 0-1.427-.656-1.427-1.465 0-.81.639-1.466 1.427-1.466s1.427.657 1.427 1.466c0 .809-.64 1.465-1.427 1.465zm6.465 4.04c.788 0 1.427.657 1.426 1.466 0 .81-.638 1.465-1.426 1.465-.788 0-1.427-.656-1.427-1.465S21.677 16 22.465 16z"/><filter id="d" width="119.4%" height="119.4%" x="-9.7%" y="-6.9%" filterUnits="objectBoundingBox"><feOffset dy=".5" in="SourceAlpha" result="shadowOffsetOuter1"/><feGaussianBlur in="shadowOffsetOuter1" result="shadowBlurOuter1" stdDeviation=".5"/><feColorMatrix in="shadowBlurOuter1" values="0 0 0 0 0 0 0 0 0 0 0 0 0 0 0 0 0 0 0.204257246 0"/></filter></defs><g fill="none" fill-rule="evenodd"><use fill="#000" filter="url(#a)" xlink:href="#b"/><use fill="#418BCA" xlink:href="#b"/><use fill="url(#c)" style="mix-blend-mode:soft-light" xlink:href="#b"/><circle cx="16" cy="15" r="14.5" stroke="#000" stroke-opacity=".097"/><g fill-rule="nonzero"><use fill="#000" filter="url(#d)" xlink:href="#e"/><use fill="#FFF" fill-rule="evenodd" xlink:href="#e"/></g></g></svg>
